X:1
T: Lord Saulton's Reel
C:
R:Reel
Q: 232
K:A
M:4/4
L:1/8
|:e2|ea ga ba gf|ea gf fe dc|B2 Bc dB Bc|dB fB bB fB|
ea ga ba gf|ea gf ed cB|AB cd ef ed|cA Bc A2 e2|
cA EC A,C EA|ce af ed cB|B2 Bc dB Bc|dB fB bB fB|
cA EC A,C EA|ce af ed cB|AB cd ef ed|cA Bc A2:|
